X: 42896
T: Will You Come Down To Limerick
R: slip jig
M: 9/8
K: Gmajor
cAG ~G2d ~G2d|cAG ~G2d cAd|cAG ~G2d ~G2d|1 B/c/de ~f2d cAd:|2 B/c/de ~f2d cAG||
|:d2g gaf ~g2f|dgg gfg abc'|bag agf gfd|1 cAA ~f2d cAG:|2 cAA ~f2d cAd||

